X:1
T:062 - Nome Precioso
T:Letra: Lydia Baxter (1809-1874)
T:Trad.: Benjamim Rufino Duarte (1874-1942)
T:Música: William Howard Doane (1832-1915)
M:4/4
L:1/8
Q:1/4=115
K:Ab 
V:1
"Ab"E2 A2 c3/B/ A3/B/ | A4 E4 | "Db"F2 A2 G3/F/ A3/F/ | "Ab"E6 z2 | "Eb"E2 B2 A3/G/ A3/B/ | "Ab"c4 A4 | "Eb"B2 E2 c3/B/ A3/G/ | "Ab"A4 z2 || A3/G/ | "Db"F6 AF| "Ab"E6 AB| c2 E2 A2 c2 | "Eb"B4 z2 c3/B/| "Ab"A6 AG | ("Db"F4 HA2) AB | "Ab/Eb"c2 A2 c2 "Eb7"B2 | "Ab"A6 z2 |]
w: 1.~Le-va tu con-ti-goo No-me De Je-sus, o Sal-va-dor; Es-te No-me dá con-so-lo, Se-ja no lu-gar que for. No-me bom, do-ceà fé, Aes-pe-ran-ça do por-vir.  No-me bom, do-ceà fé,_ Aes-pe-ran-ça do por-vir. 
w: 2.~Es-te No-me le-va sem-pre, Pa-ra bem te de-fen-der; E-leé ar-maao teu al-can-ce, Quan-doo mal tea-pa-re-cer.
w: 3.~Oh, que No-me tão pre-cio-so! Go-zo traz ao co-ra-ção; Sen-do por Je-sus a-cei-to, Tu te-rás o seu per-dão. 
w: 4.~No-me san-toe ve-ne-rá-vel É Je-sus, oa-ma-do teu; Rei dos reis, Se-nhor E-ter-no, Tu oa-cla-ma-rás no céu.
W: 
W: 
W: 1. Leva tu contigo o Nome
W: De Jesus, o Salvador;
W: Este Nome dá consolo,
W: Seja no lugar que for.
W: 
W:    (Estribilho)
W:    Nome bom, doce à fé, 
W:    A esperança do porvir.
W:    Nome bom, doce à fé, 
W:    A esperança do porvir.
W: 
W: 2. Este Nome leva sempre,
W: Para bem te defender;
W: Ele é arma ao teu alcance,
W: Quando o mal te aparecer.
W: 
W: 
W: 
W: 3. Oh, que Nome tão precioso!
W: Gozo traz ao coração;
W: Sendo por Jesus aceito,
W: Tu terás o seu perdão.
W: 
W: 4. Nome santo e venerável
W: É Jesus, o amado teu;
W: Rei dos reis, Senhor Eterno,
W: Tu o aclamarás no céu. 
W: 
W: 





